X:1
T:Sonata F-Dur, TWV 41:F2
T:Sonate F-Dur, TWV 41:F2
T:für Blockflöte und Bassocontinuo aus Der Getreue Musikmeister (1728) Transcribed for Recorder, Fagotto and Harpsichord from IMSLP#325740 PDF File
T: Georg Philipp Telemann (1681 — 1767) Edited by Milton Wittgenstein Figured bass realization by Thomas Wilt
T:Public Domain
T:Public Domain
T:Public Domain
T:Public Domain
T:Public Domain
C:Georg Philipp Telemann (1681-1767)
Z:Public Domain
%%score [ 1 2 ] { ( 3 4 ) | 5 }
L:1/8
Q:1/4=116
M:4/4
K:F
V:1 treble nm="Alto Rec." snm="A."
V:2 bass nm="Fagotto" snm="Bsn."
V:3 treble nm="Harpsichord" snm="Hch."
V:4 treble 
V:5 bass 
V:1
"^1. Vivace" .c'.f.f.d' !tenuto!c'2 (b/a/).b/.c'/ | !tenuto!a2 (g/f/).g/.a/ fc !tenuto!.fa/g/ | %2
 !tenuto!f2 (c'/b/)a/g/ fc fa/g/ | !tenuto!fg/a/ ba (Tag) z2 | %4
 !tenuto!gf/e/ !tenuto!a2 (g/f/)(e/f/) de | !tenuto!fe/d/ !tenuto!g2 (f/e/)d/e/ cd | %6
 !tenuto!ed/c/ !tenuto!fe/d/ !tenuto!gf/e/ !breath!!tenuto!ag/f/ | %7
 (!tenuto!=b/g/)g/g/ (!tenuto!c'/g/)g/g/ (!tenuto!d'/g/)g/g/ (!tenuto!e'/g/)g/g/ | %8
 (!tenuto!=b/g/)g/g/ (!tenuto!c'/g/)g/g/ .d'.g !tenuto!f' z | %9
 !tenuto!e'd'/c'/ !tenuto!d'c'/=b/ !tenuto!c'b/a/ gf | %10
 (e/f/)g/a/ (d/e/)f/g/ (c/d/)e/f/ (d/e/)f/g/ | (e/f/)g/a/ (d/e/)f/g/ !breath!cd/e/ f/g/a/=b/ | %12
 c'gc'g !tenuto!c'=b/a/ gf | e2{/e} (Td2{cd)} c2 z2 :: .g.e.e.g ^c2 !tenuto!_b2 | %15
 !tenuto!ag/f/ !tenuto!gf/e/ .f.d z2 | .c'.a.a.c' !tenuto!^f2 !tenuto!_e'2 | %17
 !tenuto!d'c'/b/ !tenuto!c'b/a/ !tenuto!bg z .a | (b/g/)^f/g/ (d/g/)f/g/ .b.g z a | %19
 (b/g/)^f/g/ (d/g/)f/g/ d'gg'g | !tenuto!ba/g/ !tenuto!ag/^f/ !tenuto!g=f/_e/ dc | %21
 !tenuto!B!tenuto!g !tenuto!A!tenuto!^f !tenuto!G2 z2 | !tenuto!g2 (f/e/)f/g/ (e/c/)d/e/ f/g/a/b/ | %23
 !tenuto!c'2 (b/a/)b/c'/ (a/f/)e/f/ g/a/b/c'/ | !tenuto!d'2 (c'/b/)c'/d'/ b2 (a/g/)a/b/ | %25
 (g/f/)g/a/ (f/e/)f/g/ (!tenuto!e/c/)c/c/ (!tenuto!f/c/)c/c/ | %26
 (!tenuto!g/c/)c/c/ (!tenuto!a/c/)c/c/ (!tenuto!e/c/)c/c/ (!tenuto!f/c/)c/c/ | gc b z ag/f/ gf/e/ | %28
 fc fa/g/ !breath!f2 (c'/b/)a/g/ | fc fa/g/ fg/a/ b/c'/d'/e'/ | f'c'f'c' f'e'/d'/ c'b | %31
 a2{/a} (Tg2{fg)} f2 z2 :| z/8 |[M:3/4][Q:1/4=50]"^2. Largo" !tenuto!a2 (b Ta2 g) | (Pfe) d2 z2 | %35
 (b2 g2 e2) |{/d} P^c4 z2 | !tenuto!d2 (d e2 f) | (e3 gfe) | (fg) (a Tg2 a) | %40
 (a/4g/4a3/2- a2) z2 :: (ab/c'/){/g} (T^f3 g/a/) | (d3 _e' d'2) |{c'} b2 (b Ta2) d' | (Pb3 a g2) | %45
 (f/e/f/g/) ((d T^c2) d/e/) | A3 e f2- | fg (f Te2) d | d4 z2 :| z/8 | %50
[M:6/8][Q:3/8=120]"^3. Allegro"!mf! .c' | (!>!ag)f !tenuto!d'2 .f | (!>!ed)c !tenuto!g2 .B | %53
 (Ac)f egc' | (af)c !breath!!tenuto!F2!p! g | (_ag)a (g^f)g | !tenuto!^f2 d !tenuto!a2 .d | %57
 (ba)b (a^g)a | !tenuto!^g2 e !breath!!tenuto!=b2!mf! .e | (c'=b)c' (_ba)b | %60
 (a=b)c' !tenuto!g2 c' | (fa)c' !tenuto!e2!p! c' | (!>!df)a (ag)f | (!>!fe)d (dc)=B | %64
 !tenuto!=B3 !tenuto!f3 | (ed)c !breath!!tenuto!G2!mf! .=b | (c'g)e (ce)g | (e'g)e (ce)g | %68
 (g'g)e ceg | (c''=b)c' !tenuto!g2 b | c'3 z2 ::!f! .g | (ed)c !tenuto!c'2 .a | %73
 (^fe)d !tenuto!d'2 .g | (_e'c')a (^fa)d' | (bg)d !breath!!tenuto!G2!mf! .a | (b2 d) (^c2 b) | %77
 (b Ta2) ag.a | (b2 d) (^c2 a) | (a Tg2) g^f.g | (ba)g (gf)e | !tenuto!^c'2 .a !tenuto!e'2 .g | %82
!<(! (fe)d A2 ^c!<)! | !tenuto!d3 z2!p! .a | d'2 d (c'=b)c' | (=bc')d' (ga)b | %86
 !breath!!tenuto!c'2 .c (_ba)b | (ab)c' (fg)a |!mf! (ba)g a3 | g(fe) !breath!f3 | (=Bd)f G(gf) | %91
 (ed)c !breath!_b3 | (ag)f c2!p! e | (fc)A (FA)c |!<(! (ac)A (FA)c | (c'c)A (FA)c!<)! | %96
!f! (f'e)f c2 e | !tenuto!f3 z2 :| %98
V:2
 F,2 z B, A,F,G,C, | F,F,,B,,G,, A,,2 z C, | A,,F,,A,,C, A,,2 z C | A,F,E,F, C,2 C,D, | %4
 E,2 ^C,A,, D,2 z C, | D,2 =B,,G,, C,2 z B,, | C,2 D,2 E,2 F,2 | G,,2 z2 G,2 z2 | %8
 G,,2 z2 G,2 =B,,G,, | C,E,F,G, C,D,E,D, | C,2 ^B,,2 C,2 G,,2 | C,2 =B,,2 C,2 D,2 | %12
 E,2 z2 E,D,E,F, | G,2 G,,2 C,2 z2 :: C2 _B,2 A,A,,G,,G, | F,2 E,2 D,2 F,D, | _E,2 C,2 D,D CC, | %17
 B,,2 A,,2 G,,G, ^F,D, | G,2 z2 G,,G, ^F,D, | G,2 z2 B,2 z _E | D2 D,2 _E,2 B,,C, | %21
 D,2 D,,2 G,,2 F,/E,/F,/G,/ | E,C,D,G,, C,2 z2 | A,F,G,C, F,2 z2 | B,G,A,D, G,E,F,F,, | %25
 B,,2 =B,,2 C,2 z2 | C,2 z2 C,2 z2 | C,2 E,C, F,A,,B,,C, | A,,F,, z C, A,,F,,A,,C, | %29
 A,,F,, z C A,F,DB, | A,2 z2 A,,G,,A,,B,, | C,2 C,,2 F,,2 z2 :| z/8 |[M:3/4] D,2 ^C,2 A,,2 | %34
 D,3 =C, B,,A,, | G,,2 B,,2 G,,2 | A,,2 A,2 G,2 | F,2 E,2 D,2 | ^C,2 A,,2 C,2 | D,2 B,,4 | %40
 A,,4 z2 :: ^F,2 A,2 C2 | B,2 A,2 B,2 | C2 D2 D,2 | G,2 G,,2 A,,2 | B,,2 A,,2 G,,2 | %46
 F,,2 ^C,2 D,2 | G,2 A,2 A,,2 | D,4 z2 :| z/8 |[M:6/8] E, | F,3 B,3 | C3 E,3 | F,3 C,3 | %54
 F,,3 z2 E, | F,3 _E,3 | D,3 z2 ^F, | G,3 =F,3 | E,3 z2 .^G, | A,3 =G,3 | F,3 E,3 | D,3 C,3 | %62
 F,3 z3 | D,3 z3 | (G,^F,)G, ^B,,D,G, | C,2 F, G,2 G,, | C,3 z3 | C,3 z3 | C,3 z3 | %69
 E,2 A, G,2 G,, | C,3 z2 :: ^B,, | C,3 A,,3 | D,3 B,,3 | C,3 D,3 | G,,3 z2 ^F, | G,3 A,2 G, | %77
 (F,E,)F, (D,E,)^F, | G,3 A,2 A,, | (B,,A,,)B,, (B,A,)B, | G,3 B,3 | A,3 ^C,3 | D,2 G,, A,,2 A, | %83
 D2 D, (C=B,)C | =B,3 A,3 | G,3 z2 =F, | E,3 C,3 | D,3 z2 _E, | (D,C,)B,, (C,B,,)A,, | %89
 (B,,A,,)G,, (A,,G,,)F,, | D,3 =B,,3 | C,3 E,D,C, | F,2 B, C2 C, | F,3 z3 | F,3 z3 | F,3 z3 | %96
 A,,2 B,, C,2 C,, | F,,3 z2 :| %98
V:3
 .[Acf]2 z .[Fd] .c.A [EB]2 | A2 (G/A/)B/c/ F2 z .[Ac] | .c.A.c.f [Fc]2 z [Af] | %3
 f2 gf Tfe (E/F/E/D/) | G4 F2 z [EA] | [FA]2 [Gd]2 [Ec]2 z [Gd] | [Ec]2 [Fc]2 [Gc]2 [Ac]2 | %7
 [D=B]2 z2 [DBd]2 z2 | [=Bdg]2 z2 (B/c/d/e/) (f/e/)d | [Ge]2 A=B [Ec][FB] c/B/c/d/ | %10
 e2 d2 [Ec]2 =B2 | [Ec]2 [Gd]2 [Ge]2 =B2 | cGcG !tenuto!c(=B/A/) G[Ac] | c3 M=B [Ec]2 z2 :: %14
 c4 A2 _B2 | (d2 ^cd/e/) d2 (d/e/f/d/) | g3 _e d2 e2 | (d3 c) !tenuto!B2 (A/G/)^F | %18
 [B,G]2 z2 (B/G/^F/G/) (D/d/c/d/) | [DB]2 z2 [Gd]2 z [Gc] | [GBd]2 [^FAd]2 .G.B.G._e | %21
 !tenuto![GBd]2 !tenuto![^FA]2 !tenuto![GB]2 (A/G/)A/=B/ | [Gc]2 T[F=B]2 [Ec]2 z2 | %23
 (F/G/A _B>)G [CA]2 z2 | d4- dc ([=FA]/B/)c/d/ | (G/A/)B/c/ [Gd]2 [Gc]2 z2 | [Gce]2 z2 [EGc]2 z c | %27
 .e.g.g z .f.c.d.c | [Fc]2 z [CAc] [CFc]2 z [CAc] | [CFc]2 z A/B/ c/d/e/f/ d/e/f/g/ | %30
 fcfc fe/d/ cB | A/G/F [G,E]2 [A,F]2 z2 :| z/8 |[M:3/4] f2 e2 ^c2 | d2 A2 G2 | B2 d2 B2 | %36
 A3 A (AB) | A2 G2 F2 | E4 A2- | [FA]2 G4 | [^CEA]4 z2 :: d2 c2 d2- | d2 z2 z2 | (_EG)(^Fc)(FA) | %44
 B4 z2 | G3 A E2 | D2 (EF/G/) (FA) | [D-B]2 [DEA][^CG] [A,CE]2 | [F,A,D]4 z2 :| z/8 | %50
[M:6/8]!mf! [CG] | [CA]3 [Fd]3 | [Ec]3 (Gc)G | A3 [EG]3 | [CA]3 (Fc)!p!G | [C_A]3 [Gc]3 | %56
 [^FAc]3 z2 [DA] | (Bc)d d2 A | [^G=B]3 z2!mf! .B | [Ac]3 [_Be]3 | [Af]3 (cG)E | (cA)F (cG)E | %62
!p! D3 z3 | [FAd]3 z3 | [DG^B]3 [FGd]3 | c3 (^BG)d |!mf! !arpeggio![EGce]3 z3 | %67
 !arpeggio![EGce]3 z3 | !arpeggio![EGce]3 z3 | (cg)^f g(=f/e/)d | [EGc]3 z2 ::!f! [Gd] | %72
 [Ec]3 [Fc]3 | [^FA]2 A [Gd]2 B | (Ac)_e Ac^f | [Bg]3 z2!mf! (d/c/) | [DB]3 [^CA]3 | (d^c)d d2 =c | %78
 [DB]2 B (AE)^c | [Gd]3 z3 | [DB]3 [DG]3 | [^CE]3 [EA]3 | [FA]2 [DB] A3- | A3 [D^F]3 | %84
 [DG]3 [^Fc]3 | [D=B]3 z2 [DGB] | [CGc]2 [E_B]2 z2 | [FA]3 z2 [Af] |!mf! [Bf]3 [Af]3 | %89
 [Gc=e]3 [Fcf]3 | [FB]3 [DGd]3 | [EGc]3 [G_Bc]3 | [Ac]2 d (eG)!p!B | [CFA]6 | !arpeggio![CFAc]6 | %95
 !arpeggio![FAcf]6 |!f! (CD)E (FG)E | F3 z2 :| %98
V:4
 x4 F2 x2 | C6 x2 | F4 x4 | cABA AB z2 | !tenuto!^C2 !tenuto!E2 !tenuto!A,2 x2 | x8 | x8 | x8 | %8
 x6 G2 | x2 D2 x2 G x | GG FG/F/ x2 DF | x6 (F/E/F/G/) | C2 x5 [FA] | [EG]2 [DG]2 x4 :: %14
 .E.G.G.E ^C2 D2- | D2 G2 F4 | [Ac]4 ^F2 (G2 | G2) ^F2 x4 | x8 | x8 | x8 | x8 | x8 | C2 E2 x4 | %24
 G2 (^F>A B)G =F2 | D2- DF E2 x2 | x8 | G4 A2 GE | x8 | x8 | F6 FD | C2 x6 :| x/4 |[M:3/4] A4 E2 | %34
 F4 D2- | D4 ED | ^C4 x2 | D2 ^C2 (DA,) | A,2 ^C2 (EG) | (FE) D2 ED | x6 :: A4 ^F2 | %42
 (GB)(^Fc)(GB) | x6 | (GD B,4) | D2 ^C4 | A,4 x2 | x6 | x6 :| x/4 |[M:6/8] x | x6 | x3 C3- | %53
 C3 x3 | x6 | x6 | x6 | D6 | x6 | x6 | x6 | x6 | x6 | x6 | x6 | E2 A2 x2 | x6 | x6 | x6 | %69
 G2 x ^B2 x | x5 :: x | x6 | x6 | _E3 x3 | x6 | x6 | D3 F2 [Ac] | x6 | x6 | x6 | x6 | x3 (^CE)G | %83
 F3 x3 | x6 | x6 | x6 | x6 | x6 | x6 | x6 | x6 | x6 | x6 | x6 | x6 | x3 A,2 G, | A,3 x2 :| %98
V:5
 F,2 z B, A,F,G,C, | F,F,,B,,G,, A,,2 z C, | A,,F,,A,,C, A,,2 z C | A,F,E,F, C,2 C,D, | %4
 E,2 ^C,A,, D,2 z C, | D,2 =B,,G,, C,2 z B,, | C,2 D,2 E,2 F,2 | G,,2 z2 G,2 z2 | %8
 G,,2 z2 G,2 =B,,G,, | C,E,F,G, C,D,E,D, | C,2 =B,,2 C,2 G,,2 | C,2 =B,,2 C,2 D,2 | %12
 E,2 z2 E,D, E,F, | G,2 G,,2 C,2 z2 :: C2 _B,2 A,A,, G,,G, | F,2 E,2 D,2 F,D, | _E,2 C,2 D,D CC, | %17
 B,,2 A,,2 G,,G, ^F,D, | G,2 z2 G,,G, ^F,D, | G,2 z2 B,2 z _E | D2 D,2 _E,2 B,,C, | %21
 D,2 D,,2 G,,2 F,/E,/F,/G,/ | E,C,D,G,, C,2 z2 | A,F,G,C, F,2 z2 | B,G,A,D, G,E,F,F,, | %25
 B,,2 =B,,2 C,2 z2 | C,2 z2 C,2 z2 | C,2 E,C, F,A,,B,,C, | A,,F,, z C, A,,F,,A,,C, | %29
 A,,F,, z C A,F,DB, | A,2 z2 A,,G,,A,,B,, | C,2 C,,2 F,,2 z2 :| z/8 |[M:3/4] D,2 ^C,2 A,,2 | %34
 D,3 =C, B,,A,, | G,,2 B,,2 G,,2 | A,,2 A,2 G,2 | F,2 E,2 D,2 | ^C,2 A,,2 C,2 | D,2 B,,4 | %40
 A,,4 z2 :: ^F,2 A,2 C2 | B,2 A,2 B,2 | C2 D2 D,2 | G,2 G,,2 A,,2 | B,,2 A,,2 G,,2 | %46
 F,,2 ^C,2 D,2 | G,2 A,2 A,,2 | D,4 z2 :| z/8 |[M:6/8] E, | F,3 B,3 | C3 E,3 | F,3 C,3 | %54
 F,,3 z2 E, | F,3 _E,3 | D,3 z2 ^F, | G,3 =F,3 | E,3 z2 .^G, | A,3 =G,3 | F,3 E,3 | D,3 C,3 | %62
 F,3 z3 | D,3 z3 | (G,^F,)G, ^B,,D,G, | C,2 F, G,2 G,, | C,3 z3 | C,3 z3 | C,3 z3 | %69
 E,2 A, G,2 G,, | C,3 z2 :: ^B,, | C,3 A,,3 | D,3 B,,3 | C,3 D,3 | G,,3 z2 ^F, | G,3 A,2 G, | %77
 (F,E,)F, (D,E,)^F, | G,3 A,2 A,, | (B,,A,,)B,, (B,A,)B, | G,3 B,3 | A,3 ^C,3 | D,2 G,, A,,2 A, | %83
 D2 D, (C=B,)C | =B,3 A,3 | G,3 z2 =F, | E,3 C,3 | D,3 z2 _E, | (D,C,)B,, (C,B,,)A,, | %89
 (B,,A,,)G,, (A,,G,,)F,, | D,3 =B,,3 | C,3 E,D,C, | F,2 B, C2 C, | !tenuto!F,3 z3 | %94
 !arpeggio!!tenuto!F,3 z3 | !arpeggio!!tenuto!F,3 z3 | A,,2 B,, C,2 C,, | F,,3 z2 :| %98

